X: 26
T: Rolling Waves, The
Z: UPipes & harp
S: https://thesession.org/tunes/88#setting50076
R: jig
M: 6/8
L: 1/8
K: Dmaj
AG|:{A}FE{A}F ~D3 | {A}D2 d .cAG | {A}FE{A}F ~D3 | A{c}AF {A}GFE |
{A}FE{A}F ~D3 | {A}D2 d .cAG | F3 GFG | A2 F {A}GFE :|
{A} D2 d cAd | cAd cAG | ~F2 d cAd | ~A2 F {A}GFE |
~D2 d .cAc|ded cAG | ~F3 GFG | A2 F GFE |
{A} D2 d cAd | cAd cAG | ~F2 d cAG|FAF {A}GFE|
~D2 d .cde|fed cAG | ~F3 ~G3|~A2 F {A}GFE||

